build/img/logo.svg

<svg width="62" height="62" viewBox="0 0 62 62" fill="none" xmlns="http://www.w3.org/2000/svg">
<path d="M22.7825 40.1768L28.2395 34.447L34.4468 40.1768H45.0878L28.1713 23.6013L11.3911 40.1768H22.7825Z" fill="white"/>
<path d="M38.4033 13.5742L30.3543 21.7596L35.6749 27.2166L38.4033 24.4881L53.3418 39.3583C49.9312 48.4305 41.2 54.9106 30.9 54.9106C17.6669 54.9106 6.95762 44.2014 6.95762 30.9682C7.02583 17.7351 17.7351 7.02583 30.9682 7.02583C42.7007 7.02583 52.5232 15.5523 54.5014 26.6709L61.7318 34.3106C61.8683 33.2192 61.9365 32.0596 61.9365 30.9682C61.9365 22.7146 58.7305 14.9384 52.8643 9.07219C46.998 3.20596 39.2219 0 30.9682 0C22.6464 0 14.9384 3.20596 9.07219 9.07219C3.20596 14.9384 0 22.6464 0 30.9682C0 39.2901 3.20596 46.998 9.07219 52.8643C14.9384 58.7305 22.7146 61.9365 30.9682 61.9365C39.2219 61.9365 46.998 58.7305 52.8643 52.8643C56.4795 49.249 59.0716 44.9517 60.504 40.2451C60.7769 39.4265 60.9815 38.5398 61.1861 37.7212L54.9106 31.1047L38.4033 13.5742Z" fill="white"/>
</svg>

<svg width="62" height="62" fill="none" xmlns="http://www.w3.org/2000/svg"><g clip-path="url(#clip0)" fill="#fff"><path d="M22.782 40.177l5.457-5.73 6.208 5.73h10.64L28.172 23.6l-16.78 16.576h11.391z"/><path d="M38.403 13.574l-8.049 8.186 5.32 5.457 2.73-2.729 14.938 14.87C49.932 48.431 41.2 54.911 30.9 54.911c-13.233 0-23.942-10.71-23.942-23.943.068-13.233 10.777-23.942 24.01-23.942 11.733 0 21.555 8.526 23.533 19.645l7.23 7.64a27.46 27.46 0 00.206-3.343c0-8.253-3.206-16.03-9.073-21.896C46.998 3.206 39.222 0 30.968 0c-8.322 0-16.03 3.206-21.896 9.072S0 22.646 0 30.968c0 8.322 3.206 16.03 9.072 21.896 5.866 5.867 13.643 9.073 21.896 9.073 8.254 0 16.03-3.206 21.896-9.073 3.616-3.615 6.208-7.912 7.64-12.619.273-.819.477-1.705.682-2.524l-6.275-6.616-16.508-17.53z"/></g><defs><clipPath id="clip0"><path fill="#fff" d="M0 0h61.868v61.868H0z"/></clipPath></defs></svg>
